src/assets/img/icons/filter-media.svg

<?xml version="1.0" encoding="UTF-8"?>
<svg width="36px" height="36px" viewBox="0 0 36 36" version="1.1" xmlns="http://www.w3.org/2000/svg" xmlns:xlink="http://www.w3.org/1999/xlink">
    <!-- Generator: Sketch 42 (36781) - http://www.bohemiancoding.com/sketch -->
    <title>Combined Shape</title>
    <desc>Created with Sketch.</desc>
    <defs></defs>
    <g id="Page-2" stroke="none" stroke-width="1" fill="none" fill-rule="evenodd">
        <path d="M2,5.00021236 L2,30.9997876 C2,32.6560965 3.34365392,34 5.00021236,34 L30.9997876,34 C32.6560965,34 34,32.6563461 34,30.9997876 L34,5.00021236 C34,3.34390353 32.6563461,2 30.9997876,2 L5.00021236,2 C3.34390353,2 2,3.34365392 2,5.00021236 Z M0,5.00021236 C0,2.23900124 2.23941719,0 5.00021236,0 L30.9997876,0 C33.7609988,0 36,2.23941719 36,5.00021236 L36,30.9997876 C36,33.7609988 33.7605828,36 30.9997876,36 L5.00021236,36 C2.23900124,36 0,33.7605828 0,30.9997876 L0,5.00021236 Z M21,14 C18.790861,14 17,12.209139 17,10 C17,7.790861 18.790861,6 21,6 C23.209139,6 25,7.790861 25,10 C25,12.209139 23.209139,14 21,14 Z M21,12 C22.1045695,12 23,11.1045695 23,10 C23,8.8954305 22.1045695,8 21,8 C19.8954305,8 19,8.8954305 19,10 C19,11.1045695 19.8954305,12 21,12 Z M20.9270568,25.2888145 L11.0247139,16.3434699 L1.66526131,24.683134 L0.334738692,23.1899128 L11.0338799,13.6565301 L20.9166932,22.5842324 L27.973788,16.1102553 L35.5312469,23.2075737 L34.1621125,24.6654732 L27.9578526,18.8389634 L20.9270568,25.2888145 Z" id="Combined-Shape" fill="#9B9B9B" fill-rule="nonzero"></path>
    </g>
</svg>

<?xml version="1.0" encoding="utf-8"?>
<!-- Generator: Adobe Illustrator 21.0.0, SVG Export Plug-In . SVG Version: 6.00 Build 0)  -->
<svg version="1.1" id="Layer_1" xmlns="http://www.w3.org/2000/svg" xmlns:xlink="http://www.w3.org/1999/xlink" x="0px" y="0px"
	 viewBox="0 0 36 36" style="enable-background:new 0 0 36 36;" xml:space="preserve">
<style type="text/css">
	.st0{clip-path:url(#SVGID_2_);fill:#979797;}
	.st1{clip-path:url(#SVGID_4_);fill:#979797;}
	.st2{clip-path:url(#SVGID_6_);fill:#979797;}
</style>
<g>
	<defs>
		<path id="SVGID_1_" d="M0,5c0-2.8,2.2-5,5-5h26c2.8,0,5,2.2,5,5v26c0,2.8-2.2,5-5,5H5c-2.8,0-5-2.2-5-5V5z M2,5v26
			c0,1.7,1.3,3,3,3h26c1.7,0,3-1.3,3-3V5c0-1.7-1.3-3-3-3H5C3.3,2,2,3.3,2,5z"/>
	</defs>
	<clipPath id="SVGID_2_">
		<use xlink:href="#SVGID_1_"  style="overflow:visible;"/>
	</clipPath>
	<rect x="-5" y="-5" class="st0" width="46" height="46"/>
</g>
<g>
	<defs>
		<polygon id="SVGID_3_" points="20.9,25.3 28,18.8 34.2,24.7 35.5,23.2 28,16.1 20.9,22.6 11,13.7 0.3,23.2 1.7,24.7 11,16.3 		"/>
	</defs>
	<clipPath id="SVGID_4_">
		<use xlink:href="#SVGID_3_"  style="overflow:visible;"/>
	</clipPath>
	<rect x="-4.7" y="8.7" class="st1" width="45.2" height="21.6"/>
</g>
<g>
	<defs>
		<path id="SVGID_5_" d="M21,12c1.1,0,2-0.9,2-2s-0.9-2-2-2s-2,0.9-2,2S19.9,12,21,12z M21,14c-2.2,0-4-1.8-4-4s1.8-4,4-4s4,1.8,4,4
			S23.2,14,21,14z"/>
	</defs>
	<clipPath id="SVGID_6_">
		<use xlink:href="#SVGID_5_"  style="overflow:visible;"/>
	</clipPath>
	<rect x="12" y="1" class="st2" width="18" height="18"/>
</g>
</svg>
